src/main/resources/icons/AllIcons/debugger/frame.svg

<svg xmlns="http://www.w3.org/2000/svg" width="16" height="16" viewBox="0 0 16 16"><rect id="frame" width="16" height="16" fill="none"/><g fill="#6E6E6E" fill-rule="evenodd"><path d="M5 4h10v10H5V4zm2 2v6h6V6H7z"/><path d="M12 3H4v8H2V1h10v2z"/></g></svg>

<!-- Copyright 2000-2021 JetBrains s.r.o. Use of this source code is governed by the Apache 2.0 license that can be found in the LICENSE file. -->
<svg xmlns="http://www.w3.org/2000/svg" width="16" height="16" viewBox="0 0 16 16">
  <g fill="none" fill-rule="evenodd">
    <path fill="#6E6E6E" d="M5,4 L15,4 L15,14 L5,14 L5,4 Z M7,6 L7,12 L13,12 L13,6 L7,6 Z"/>
    <path fill="#6E6E6E" d="M12,3 L4,3 L4,11 L2,11 L2,1 L12,1 L12,3 Z"/>
  </g>
</svg>
